X:133
T:Honeysuckle Hornpipe, The
R:hornpipe
Z:id:hn-hornpipe-133
M:C|
L:1/8
K:D
(3ABc | d2cA (3Bcd AF | DFAF GBAG | FAdA FAdf | (3efe (3dcB AB (3cBA |
d2cA (3Bcd AF | DFAF GBAG | FAdB AGFE | FAD2 D2 :|
(3ABc | dcde fdec | defg a2af | geeg fddf | edcB AB (3cBA |
d2cA (3Bcd AF | DFAF GBAG | FAdB AGFE | F2D2 D2 
P:variations of 2nd part
A2 | d3e fAeA | defg a2fa | gfeg fedf | edcB AB (3cBA |
d2cA (3Bcd AF | DFAF GBAG | FAdB (3ABA (3GFE | F2D2 D2 ||

